src/topics/icons/fsharp.svg

<svg height="243" preserveAspectRatio="xMidYMid" viewBox="0 0 256 243" width="256" xmlns="http://www.w3.org/2000/svg"><path d="m0 121.491525 121.491525-121.491525v60.7457627l-60.7457623 60.7457623 60.7457623 60.745763v60.745763z" fill="#378bba"/><path d="m78.1016949 121.491525 43.3898301-43.3898301v86.7796611z" fill="#378bba"/><path d="m256 121.491525-125.830508-121.491525v60.7457627l60.745762 60.7457623-60.745762 60.745763v60.745763z" fill="#30b9db"/></svg>

<?xml version="1.0" encoding="UTF-8" standalone="no"?>
<svg width="256px" height="243px" viewBox="0 0 256 243" version="1.1" xmlns="http://www.w3.org/2000/svg" xmlns:xlink="http://www.w3.org/1999/xlink" preserveAspectRatio="xMidYMid">
	<g>
		<path d="M0,121.491525 L121.491525,0 L121.491525,60.7457627 L60.7457627,121.491525 L121.491525,182.237288 L121.491525,242.983051 L0,121.491525 L0,121.491525 Z" fill="#378BBA"></path>
		<path d="M78.1016949,121.491525 L121.491525,78.1016949 L121.491525,164.881356 L78.1016949,121.491525 L78.1016949,121.491525 Z" fill="#378BBA"></path>
		<path d="M256,121.491525 L130.169492,0 L130.169492,60.7457627 L190.915254,121.491525 L130.169492,182.237288 L130.169492,242.983051 L256,121.491525 L256,121.491525 Z" fill="#30B9DB"></path>
	</g>
</svg>
